public/images/poses-lg/Fireﬂy.svg

<svg width="800" height="800" fill="none" xmlns="http://www.w3.org/2000/svg"><path d="M402.24 384.63c6.558-18.312 11.694-65.929-41.656-62.294-33.866 2.311-84.334 1.123-102.818-23.85-18.488-24.971-44.255 43.082-14.864 71.806 29.392 28.721 74.697 33.984 104.643 15.105 29.951-18.875 54.695-.767 54.695-.767Z" fill="#100200" stroke="#000" stroke-width="5" stroke-miterlimit="10"/><path d="M408.342 514.672s-2.942 32.372-17.658 52.971c-14.714 20.6-38.256 67.685-44.142 85.342 0 0-27.868 65.472-35.314 85.343-2.434 6.492-3.526 11.864-3.831 16.243-.6 8.624 5.736 16.14 14.349 16.92 16.496 1.502 47.016 5.392 51.281 13.921 3.871 7.744-41.918 6.573-73.711 4.866-15.932-.855-27.727-15.137-25.557-30.943 5.296-38.654 15.496-103.843 25.698-118.121 14.713-20.6 52.971-135.37 108.885-126.542Z" fill="#fff" stroke="#000" stroke-width="5" stroke-miterlimit="10"/><path d="M408.342 514.672s-2.942 32.372-17.658 52.971c-14.714 20.6-38.256 67.685-44.142 85.342 0 0-27.868 65.472-35.314 85.343-2.434 6.492-3.526 11.864-3.831 16.243-.6 8.624 5.736 16.14 14.349 16.92 16.496 1.502 47.016 5.392 51.281 13.921 3.871 7.744-41.918 6.573-73.711 4.866-15.932-.855-27.727-15.137-25.557-30.943 5.296-38.654 15.496-103.843 25.698-118.121 14.713-20.6 52.971-135.37 108.885-126.542Z" stroke="#000" stroke-width="5" stroke-miterlimit="10"/><path d="M386.011 442.716s12.029 17.513-5.628 23.399c0 0-85.342-2.943-150.084 44.142s-61.8 147.141-61.8 147.141 50.029-55.913 88.285-41.198c0 0 55.913-58.857 73.571-55.914 0 0 17.657-2.942 38.257-20.599 20.6-17.658 39.384-72.41 53.532-72.991 14.154-.581-24.618-41.496-36.133-23.98Z" fill="#fff" stroke="#000" stroke-width="5" stroke-miterlimit="10"/><path d="M386.011 442.716s12.029 17.513-5.628 23.399c0 0-85.342-2.943-150.084 44.142s-61.8 147.141-61.8 147.141 50.029-55.913 88.285-41.198c0 0 55.913-58.857 73.571-55.914 0 0 17.657-2.942 38.257-20.599 20.6-17.658 39.384-72.41 53.532-72.991 14.154-.581-24.618-41.496-36.133-23.98Z" stroke="#000" stroke-width="5" stroke-miterlimit="10"/><path d="M393.099 437.538c-5.217-9.294-.762-18.407-2.509-29.991-2.771-18.41 19.685-36.458 40.449-35.199 27.414 1.664 28.406 99.625 12.516 101.264-9.409.965-26.527-7.021-38.935-22.676-3.993-5.034-11.521-13.398-11.521-13.398Z" fill="#fff" stroke="#000" stroke-width="5" stroke-miterlimit="10"/><path d="M393.099 437.538c-5.217-9.294-.762-18.407-2.509-29.991-2.771-18.41 19.685-36.458 40.449-35.199 27.414 1.664 28.406 99.625 12.516 101.264-9.409.965-26.527-7.021-38.935-22.676-3.993-5.034-11.521-13.398-11.521-13.398Z" stroke="#000" stroke-width="5" stroke-miterlimit="10"/><path d="M442.471 383.817c-.422 17.184-13.187 48.232-34.736 42.505-24.227-6.434-14.396 8.108-12.513 12.682 1.883 4.576 13.634 13.255 11.212 14.542-2.424 1.288-33.561-12.662-36.748-37.458-3.19-24.796 6.287-36.464 19.174-44.042 12.887-7.578 33.929-8.579 46.712-.607 12.786 7.972 6.899 12.378 6.899 12.378Z" fill="#100200" stroke="#000" stroke-width="5" stroke-miterlimit="10"/><path d="M170.923 623.689s-15.665 61.668 25.534 88.154c41.199 26.485 82.4-17.658 82.4-17.658s79.456-141.256 100.058-147.142c20.6-5.887 97.115-26.485 135.371-88.284 0 0 17.657-20.6 29.428-26.486 11.771-5.886 41.2-5.886 52.972-8.829 11.771-2.942 2.941-29.427 11.771-44.142C617.285 364.588 632 346.931 632 335.159c0-11.771-29.428 8.829-29.428 8.829l-61.799 52.97s-135.37 73.571-150.084 85.342c-14.714 11.772-123.602 67.686-150.088 117.714-.001 0-65.784 9.09-69.678 23.675Z" fill="#fff" stroke="#000" stroke-width="5" stroke-miterlimit="10"/><path d="M170.923 623.689s-15.665 61.668 25.534 88.154c41.199 26.485 82.4-17.658 82.4-17.658s79.456-141.256 100.058-147.142c20.6-5.887 97.115-26.485 135.371-88.284 0 0 17.657-20.6 29.428-26.486 11.771-5.886 41.2-5.886 52.972-8.829 11.771-2.942 2.941-29.427 11.771-44.142C617.285 364.588 632 346.931 632 335.159c0-11.771-29.428 8.829-29.428 8.829l-61.799 52.97s-135.37 73.571-150.084 85.342c-14.714 11.772-123.602 67.686-150.088 117.714-.001 0-65.784 9.09-69.678 23.675Z" stroke="#000" stroke-width="5" stroke-miterlimit="10"/><path d="M240.599 600.014s-14.714 17.657-23.542 41.198" stroke="#000" stroke-width="5" stroke-miterlimit="10"/><path d="M364.682 466.466s-8.917 20.741-6.176 35.944Z" fill="#fff"/><path d="M364.682 466.466s-8.917 20.741-6.176 35.944" stroke="#000" stroke-width="5" stroke-miterlimit="10"/><path d="M364.682 466.466s-8.917 20.741-6.176 35.944" stroke="#000" stroke-width="5" stroke-miterlimit="10"/><path d="M521.87 407.275s15.286 10.65 11.208 32.538Z" fill="#fff"/><path d="M521.87 407.275s15.286 10.65 11.208 32.538" stroke="#000" stroke-width="5" stroke-miterlimit="10"/><path d="M521.87 407.275s15.286 10.65 11.208 32.538" stroke="#000" stroke-width="5" stroke-miterlimit="10"/></svg>

<svg width="800" height="800" viewBox="0 0 800 800" fill="none" xmlns="http://www.w3.org/2000/svg">
<path d="M402.24 384.63C408.798 366.318 413.934 318.701 360.584 322.336C326.718 324.647 276.25 323.459 257.766 298.486C239.278 273.515 213.511 341.568 242.902 370.292C272.294 399.013 317.599 404.276 347.545 385.397C377.496 366.522 402.24 384.63 402.24 384.63Z" fill="#100200" stroke="black" stroke-width="5" stroke-miterlimit="10"/>
<path d="M408.342 514.672C408.342 514.672 405.4 547.044 390.684 567.643C375.97 588.243 352.428 635.328 346.542 652.985C346.542 652.985 318.674 718.457 311.228 738.328C308.794 744.82 307.702 750.192 307.397 754.571C306.797 763.195 313.133 770.711 321.746 771.491C338.242 772.993 368.762 776.883 373.027 785.412C376.898 793.156 331.109 791.985 299.316 790.278C283.384 789.423 271.589 775.141 273.759 759.335C279.055 720.681 289.255 655.492 299.457 641.214C314.17 620.614 352.428 505.844 408.342 514.672Z" fill="white" stroke="black" stroke-width="5" stroke-miterlimit="10"/>
<path d="M408.342 514.672C408.342 514.672 405.4 547.044 390.684 567.643C375.97 588.243 352.428 635.328 346.542 652.985C346.542 652.985 318.674 718.457 311.228 738.328C308.794 744.82 307.702 750.192 307.397 754.571C306.797 763.195 313.133 770.711 321.746 771.491C338.242 772.993 368.762 776.883 373.027 785.412C376.898 793.156 331.109 791.985 299.316 790.278C283.384 789.423 271.589 775.141 273.759 759.335C279.055 720.681 289.255 655.492 299.457 641.214C314.17 620.614 352.428 505.844 408.342 514.672Z" stroke="black" stroke-width="5" stroke-miterlimit="10"/>
<path d="M386.011 442.716C386.011 442.716 398.04 460.229 380.383 466.115C380.383 466.115 295.041 463.172 230.299 510.257C165.557 557.342 168.499 657.398 168.499 657.398C168.499 657.398 218.528 601.485 256.784 616.2C256.784 616.2 312.697 557.343 330.355 560.286C330.355 560.286 348.012 557.344 368.612 539.687C389.212 522.029 407.996 467.277 422.144 466.696C436.298 466.115 397.526 425.2 386.011 442.716Z" fill="white" stroke="black" stroke-width="5" stroke-miterlimit="10"/>
<path d="M386.011 442.716C386.011 442.716 398.04 460.229 380.383 466.115C380.383 466.115 295.041 463.172 230.299 510.257C165.557 557.342 168.499 657.398 168.499 657.398C168.499 657.398 218.528 601.485 256.784 616.2C256.784 616.2 312.697 557.343 330.355 560.286C330.355 560.286 348.012 557.344 368.612 539.687C389.212 522.029 407.996 467.277 422.144 466.696C436.298 466.115 397.526 425.2 386.011 442.716Z" stroke="black" stroke-width="5" stroke-miterlimit="10"/>
<path d="M393.099 437.538C387.882 428.244 392.337 419.131 390.59 407.547C387.819 389.137 410.275 371.089 431.039 372.348C458.453 374.012 459.445 471.973 443.555 473.612C434.146 474.577 417.028 466.591 404.62 450.936C400.627 445.902 393.099 437.538 393.099 437.538Z" fill="white" stroke="black" stroke-width="5" stroke-miterlimit="10"/>
<path d="M393.099 437.538C387.882 428.244 392.337 419.131 390.59 407.547C387.819 389.137 410.275 371.089 431.039 372.348C458.453 374.012 459.445 471.973 443.555 473.612C434.146 474.577 417.028 466.591 404.62 450.936C400.627 445.902 393.099 437.538 393.099 437.538Z" stroke="black" stroke-width="5" stroke-miterlimit="10"/>
<path d="M442.471 383.817C442.049 401.001 429.284 432.049 407.735 426.322C383.508 419.888 393.339 434.43 395.222 439.004C397.105 443.58 408.856 452.259 406.434 453.546C404.01 454.834 372.873 440.884 369.686 416.088C366.496 391.292 375.973 379.624 388.86 372.046C401.747 364.468 422.789 363.467 435.572 371.439C448.358 379.411 442.471 383.817 442.471 383.817Z" fill="#100200" stroke="black" stroke-width="5" stroke-miterlimit="10"/>
<path d="M170.923 623.689C170.923 623.689 155.258 685.357 196.457 711.843C237.656 738.328 278.857 694.185 278.857 694.185C278.857 694.185 358.313 552.929 378.915 547.043C399.515 541.156 476.03 520.558 514.286 458.759C514.286 458.759 531.943 438.159 543.714 432.273C555.485 426.387 584.914 426.387 596.686 423.444C608.457 420.502 599.627 394.017 608.457 379.302C617.285 364.588 632 346.931 632 335.159C632 323.388 602.572 343.988 602.572 343.988L540.773 396.958C540.773 396.958 405.403 470.529 390.689 482.3C375.975 494.072 267.087 549.986 240.601 600.014C240.6 600.014 174.817 609.104 170.923 623.689Z" fill="white" stroke="black" stroke-width="5" stroke-miterlimit="10"/>
<path d="M170.923 623.689C170.923 623.689 155.258 685.357 196.457 711.843C237.656 738.328 278.857 694.185 278.857 694.185C278.857 694.185 358.313 552.929 378.915 547.043C399.515 541.156 476.03 520.558 514.286 458.759C514.286 458.759 531.943 438.159 543.714 432.273C555.485 426.387 584.914 426.387 596.686 423.444C608.457 420.502 599.627 394.017 608.457 379.302C617.285 364.588 632 346.931 632 335.159C632 323.388 602.572 343.988 602.572 343.988L540.773 396.958C540.773 396.958 405.403 470.529 390.689 482.3C375.975 494.072 267.087 549.986 240.601 600.014C240.6 600.014 174.817 609.104 170.923 623.689Z" stroke="black" stroke-width="5" stroke-miterlimit="10"/>
<path d="M240.599 600.014C240.599 600.014 225.885 617.671 217.057 641.212" stroke="black" stroke-width="5" stroke-miterlimit="10"/>
<path d="M364.682 466.466C364.682 466.466 355.765 487.207 358.506 502.41Z" fill="white"/>
<path d="M364.682 466.466C364.682 466.466 355.765 487.207 358.506 502.41" stroke="black" stroke-width="5" stroke-miterlimit="10"/>
<path d="M364.682 466.466C364.682 466.466 355.765 487.207 358.506 502.41" stroke="black" stroke-width="5" stroke-miterlimit="10"/>
<path d="M521.87 407.275C521.87 407.275 537.156 417.925 533.078 439.813Z" fill="white"/>
<path d="M521.87 407.275C521.87 407.275 537.156 417.925 533.078 439.813" stroke="black" stroke-width="5" stroke-miterlimit="10"/>
<path d="M521.87 407.275C521.87 407.275 537.156 417.925 533.078 439.813" stroke="black" stroke-width="5" stroke-miterlimit="10"/>
</svg>
